!!!OTL: 2031. Die zwoelf heiligen Zahlen.
!!!ODT: 1876
!!!ARE: Europa, Mitteleuropa, Deutschland, Eifel, Ingenbruch
!!!SCT: E2131A
!!!TXL: @@DE
!!!YEM: Copyright 1995, estate of Helmut Schaffrath.
**kern	**text
*ICvox	*
*M4/4	*
*met(c)	*
*k[f#]	*
*G:	*
=1	=1
!LO:TX:a:t=Mäßig.	!
!LO:TX:a:t=Aus der Eifel (Jngenbruch) 1876.	!
{4.g	Gu-
8a	-ter
4b/	Freund,
4b/	ich
=2	=2
(8bqq	.
4a)	fra-
4a	-ge
4g	dich.
4r}	.
=3	=3
{4.b	"Be-
8cc	-ſter
4dd	Freund,
4dd	was
=4	=4
8ddqq	.
4cc	fragſt
4cc	du
4b	mich?"
4r}	.
=5||	=5||
{4.dd	Fra-
8b	-ge
8ddL	dich
8ccJ	.
4b	das
=6	=6
(4a	Er-
8bL	.
8ccJ)	.
4b	-ſte.
4r}	.
=7||	=7||
{4b	"Eins
8bL	al-
8aJ	.
4b	-lein
4b	iſt
=8	=8
4b/	Gott
8bL	der
8aJ	.
4b	Herr,
4r}	.
=9||	=9||
{4a	der
4b	da
2a	lebt,
=10	=10
4a	der
4b	da
4a}	ſchwebt
{8gL	im
8bJ	.
=11	=11
4dd	Him-
4b	-mel
8aL	und
8bJ	.
4cc	auf
=12	=12
2cc	Er-
4b	-den."
4r}	.
==	==
!!!AGN: geistliches Lied, Curiosum
!!!ONB: ESAC (Essen Associative Code) Database: ERK3
!!!AMT: simple quadruple
!!!AIN: vox
!!!EED: Helmut Schaffrath
!!!EEV: 1.0
!!!GTL: 5. Curiosa geistlicher Dichtung des Mittelalters.
!!!URL-scan: https://rosdok.uni-rostock.de/mcrviewer/recordIdentifier/rosdok_ppn745177999/iview2/phys_0830.iview2?x=188.96815741117916&y=2285.706256023608&scale=0.7014306698522887&rotation=0&layout=singlePageLayout
!!!ENC: Anna Maria Matuszewska
!!!EEV: 2025/14/01
*-	*-
